FINK
CUT[DEM EWGEN UNSRE LIEDER]
REG[Europa, Mitteleuropa, Deutschland]
KEY[F1003  16 Eb 3/4]
MEL[-5__  1__.-7_-6_-5_  -5_.-4-3__
    -5__  1_.-6-5__-7_-6_  -5__0__
    -5__  1__.-7_-6_-5_  -5_.-4-3__
    -5__  1_.-6-5__-7_-6_  -5__0__
    -5__  2__.2_2_1_  1_.-7-7__
    -6__  -5__.-6-5-4_-3_  -3__-2__
    -5__  1__.-7_-6_-5_  -5_.-4-3__
    1__  2_.21__-7__  1__0__
    -3_-4_  -5_.-4-3__-2__  -1__0__ //] >>
FCT[Erbauungs - Lied, religioes]
